X:1
T:Title
%%score ( 1 2 ) { 3 | 4 }
L:1/8
Q:1/4=105
M:4/4
K:F
V:1 treble nm="Grand Piano, Soprano"
V:2 treble 
V:3 bass nm="Choir Pad, Singing for Jesus!"
V:4 bass 
V:1
 F2 C>F A2 F2 | [Fd]2 [Fc]>[F=B] [Fc]4 | [FA]2 [FA]>[FA] [DA]2 [DG][DF] | [EG]6 z2 | %4
w: By~Arthur~Pearson * * * *||||
 [CF]2 C>[CF] [FA]2 F2 | z4 c2 z2 | [EG]2 [Gc][Ge] [Fd]2 [FA][F=B] | [Ec]8 | %8
w: ||||
 [EB]3 [EA] [EG]2 [EA]2 | F2 [Fd]2 [Fc]4 | [EB]3 [EA] [EG]2 [EA]2 | [DF]2 [DG]2 [^CA]4 | %12
w: ||||
 [DA]3 [DA] [_EF]2 [EF]2 | [DB]2 [Fc]2 [Fd]2 [Fd]>[Fd] | [Fc]2 [FA]2 [FB]2 [EG]2 | F8 |] %16
w: ||||
V:2
 x8 | x8 | x8 | x8 | x8 | [Fd]2 [Fc]>[F=B] F2- [FA]2 | x8 | x8 | x8 | x8 | x8 | x8 | x8 | x8 | x8 | %15
 x8 |] %16
V:3
 F,2 C,>F, A,2 F,2 | B,2 A,>_A, =A,4 | C2 C>C C2 =B,B, | C6 z2 | A,2 A,>A, C2 A,2 | %5
 B,2 A,>_A, =A,2[K:treble] C2 | C2 EC =B,2 CD | C8 | G,3 A, B,2 C2 | A,2 B,2 A,4 | G,3 A, B,2 A,2 | %11
 A,2 D,2 E,4 | F,3 F, A,2 A,2 | B,2 A,2 B,2 _A,>A, | A,2 A,2 D2 CB, | A,8 |] %16
V:4
 z8 | F,2 F,>F, F,4 | F,2 F,>F, G,2 G,G, | C,6 z2 | F,2 F,>F, F,2 F,2 | F,2 F,>F, F,4 | %6
 G,2 G,G, G,2 G,G, | C,8 | C,3 C, C,2 C,2 | F,2 F,2 F,4 | C,3 C, C,2 ^C,2 | D,2 B,,2 A,,4 | %12
 D,3 D, C,2 F,2 | G,2 F,2 B,,2 =B,,>B,, | C,2 D,2 G,,2 C,2 | [F,,F,]8 |] %16

